!!!!SEGMENT: Sil2010-Ave_ancilla_trinitatis.krn
!!!id: Sil2010
!!!AGN: Motet
!!!SCT: Slim (1972)
!!!voices: 4
!!!COM: Andreas de Silva
!!!OTL: Ave ancilla trinitatis
**kern	**kern	**kern	**kern
*part4	*part3	*part2	*part1
*staff4	*staff3	*staff2	*staff1
*I"Bassus	*I"Tenor	*I"Altus	*I"Superius
*I'B	*I'T	*I'A	*I'S
*clefF4	*clefGv2	*clefG2	*clefG2
*k[]	*k[]	*k[]	*k[]
*C:	*C:	*C:	*C:
*M2/1	*M2/1	*M2/1	*M2/1
*met(C|)	*met(C|)	*met(C|)	*met(C|)
!!section: Prima pars: Ave ancilla trinitatis
!!!OMD: Prima pars: Ave ancilla trinitatis
=1	=1	=1	=1
0r	0r	0r	0g
=2	=2	=2	=2
0r	0r	0r	1g
.	.	.	1a
=3	=3	=3	=3
0r	0r	0g	1.b
.	.	.	2g
=4	=4	=4	=4
0r	0r	1g	1b
.	.	1a	1cc
=5	=5	=5	=5
0r	0G	1.b	2.dd
.	.	.	4cc
.	.	.	2dd
.	.	2a	[2ee
=6	=6	=6	=6
0r	1G	2g	2ee]
.	.	2f	1dd
.	1A	1e	.
.	.	.	2cc#i
=7	=7	=7	=7
0G	1.B	0d	0dd
.	2G	.	.
=8	=8	=8	=8
1G	1B	0r	0r
1A	1c	.	.
=9	=9	=9	=9
1.B	2.d	0r	0r
.	4c	.	.
.	2d	.	.
2A	[2e	.	.
=10	=10	=10	=10
2G	2e]	1r	0r
2F	1d	.	.
1E	.	2r	.
.	2c#i	[2g	.
=11	=11	=11	=11
1D	1d	2g]	2r
.	.	2f	1dd
1r	1r	2e	.
.	.	2e	2cc
=12	=12	=12	=12
0r	0r	2d	2b
.	.	1g	2b
.	.	.	2a
.	.	2f	[2dd
=13	=13	=13	=13
0r	1r	2d	2dd]
.	.	2e	2cc
.	2r	[1f	2a
.	[2d	.	[2b
=14	=14	=14	=14
1r	2d]	2f]	2b]
.	2c	2e	1a
2r	2B	1d	.
[2G	2B	.	2g
=15	=15	=15	=15
2G]	1A	2r	1a
2F	.	1d	.
2E	2r	.	1r
2E	[2g	2c	.
=16	=16	=16	=16
1D	2g]	1d	2r
.	2f	.	1a
2r	2e	2A	.
[2G	2e	[2B	2g
=17	=17	=17	=17
2G]	1d	2B]	1a
2F	.	2A	.
2G	2r	1r	2g
2D	[2d	.	2f
=18	=18	=18	=18
1A	2d]	0r	1e
.	2c#i	.	.
[1D	2d	.	1d
.	2A	.	.
=19	=19	=19	=19
1D]	1B	2r	1r
.	.	2d	.
1r	1A	1f	2a
.	.	.	[2cc
=20	=20	=20	=20
0r	0r	2e	2cc]
.	.	1g	2b
.	.	.	1dd
.	.	2d	.
=21	=21	=21	=21
0r	0r	1f	2a
.	.	.	1cc
.	.	2e	.
.	.	[2g	2b
=22	=22	=22	=22
2r	1r	2g]	1dd
2D	.	2d	.
1F	2A	1r	1a
.	[2c	.	.
=23	=23	=23	=23
2E	2c]	0r	0r
1G	2B	.	.
.	1d	.	.
2D	.	.	.
=24	=24	=24	=24
1F	2A	1r	0r
.	1c	.	.
2E	.	2r	.
[2G	2B	[2g	.
=25	=25	=25	=25
2G]	1d	2g]	2r
2D	.	2f	1dd
1r	1A	1e	.
.	.	.	2cc
=26	=26	=26	=26
0r	0r	1d	2b
.	.	.	1a
.	.	2.f	.
.	.	.	[2cc
.	.	4f	.
=27	=27	=27	=27
0r	0r	2f	4cc]
.	.	.	4cc
.	.	2e	2cc
.	.	2d	2b
.	.	2d	2a
=28	=28	=28	=28
0r	0r	2e	2r
.	.	2f	2a
.	.	2g	2b
.	.	2e	2cc
=29	=29	=29	=29
0r	2r	2.f	2.dd
.	1d	.	.
.	.	4e	4cc
.	.	2f	2dd
.	2c	[2g	[2ee
=30	=30	=30	=30
0r	1B	4g]	2ee]
.	.	4f	.
.	.	2d	1dd
.	1A	1e	.
.	.	.	2cc#i
=31	=31	=31	=31
2r	1r	0d	0dd
1G	.	.	.
.	2r	.	.
2F	[2d	.	.
=32	=32	=32	=32
1E	2d]	0r	0r
.	2c	.	.
1D	2B	.	.
.	[2A	.	.
=33	=33	=33	=33
2.F	2A]	0r	0r
.	2.c	.	.
4F	.	.	.
2F	.	.	.
.	4c	.	.
2E	2c	.	.
=34	=34	=34	=34
2D	2B	0r	0r
2D	2A	.	.
2E	2r	.	.
2F	2A	.	.
=35	=35	=35	=35
2G	2B	0r	1r
2E	2c	.	.
2F	2.d	.	2r
2D	.	.	2a
.	4c	.	.
=36	=36	=36	=36
2G	2B	1r	2b
2F	2A	.	2cc
1B-X	1G	2r	2dd
.	.	2d	2g
=37	=37	=37	=37
1A	1c	2e	4a
.	.	.	4b
.	.	2f	4cc
.	.	.	4a
[1G	[1d	1g	2.b
.	.	.	8aL
.	.	.	8gJ
=38	=38	=38	=38
2G]	1d]	2r	2b
2F	.	2A	1a
1E	1G	2B	.
.	.	2c	[2g
=39	=39	=39	=39
1D	1A	0d	2g]
.	.	.	2f#i
1G	1G	.	1g
=40	=40	=40	=40
2r	2r	2r	2r
2G	2d	2g	2b
2G	2d	2g	2b
2G	2d	2g	2b
=41	=41	=41	=41
2G	2d	2g	2b
2G	2d	2g	2b
2C	2e	2g	2cc
2C	2e	2g	2cc
=42	=42	=42	=42
2.G	2.d	[0g	2b
.	.	.	1dd
4A	4c	.	.
4B	4d	.	.
4G	4B	.	.
2c	[2e	.	[2cc
=43	=43	=43	=43
1G	2e]	1g]	2cc]
.	1d	.	2b
1A	.	2r	2.cc
.	2c	2e	.
.	.	.	8bL
.	.	.	8aJ
=44	=44	=44	=44
0G	1d	2.g	1b
.	.	4f	.
.	1r	2g	2r
.	.	2e	2b
=45	=45	=45	=45
0r	1r	1d	2.dd
.	.	.	4cc
.	2r	1g	2dd
.	2B	.	2b
=46	=46	=46	=46
0r	2.d	1a	2a
.	.	.	2.ff
.	4c	.	.
.	2d	2f	.
.	.	.	4ee
.	2B	2g	[2dd
=47	=47	=47	=47
1r	1A	1e	2dd]
.	.	.	2cc#i
2r	2r	1d	[1dd
2G	2B	.	.
=48	=48	=48	=48
2.G	2.d	0r	1dd]
4E	4c	.	.
2F	2d	.	1r
2G	2B	.	.
=49	=49	=49	=49
1A	2A	0r	0r
.	2f	.	.
2G	2e	.	.
2F	[2d	.	.
=50	=50	=50	=50
1E	2d]	1r	0r
.	2c#i	.	.
[1D	[1d	2r	.
.	.	2d	.
=51	=51	=51	=51
1D]	1d]	2f	2r
.	.	2f	2a
1A	1r	2e	2cc
.	.	2c	2cc
=52	=52	=52	=52
1E	0r	2r	2b
.	.	2c	2g
1r	.	2d	2r
.	.	2e	2g
=53	=53	=53	=53
1r	0r	2f	2a
.	.	4e	2b
.	.	4d	.
2r	.	4c	2cc
.	.	4d	.
2A	.	[2e	4b
.	.	.	4a
=54	=54	=54	=54
2c	0r	2e]	2g
2c	.	2A	2a
2B	.	[1d	2g
2G	.	.	[2b
=55	=55	=55	=55
0r	1r	2d]	2b]
.	.	8dL	1a
.	.	8c	.
.	.	8B	.
.	.	8AJ	.
.	2r	1B	.
.	2d	.	2g#i
=56	=56	=56	=56
2r	2f	1A	[0a
2D	2f	.	.
4A	2e	2r	.
4G	.	.	.
4A	2c	[2e	.
4B	.	.	.
=57	=57	=57	=57
2c	2r	2e]	0a_
2A	2c	2e	.
2r	2d	2f	.
2C	2e	2e	.
=58	=58	=58	=58
2D	0f	0d	0a_
2E	.	.	.
2F	.	.	.
2G	.	.	.
=59	=59	=59	=59
1A	0e	1c	0a]
2r	.	2A	.
2A	.	[2c	.
=60	=60	=60	=60
1c	2r	2c]	0r
.	2e	2A	.
2A	2e	2c	.
[2c	2e	[2A	.
=61	=61	=61	=61
4c]	2e	2A]	0r
4B	.	.	.
2A	2f	2c	.
2G	2e	2B	.
2F	[2d	[2A	.
=62	=62	=62	=62
1E	2d]	2A]	1r
.	2c#i	2G	.
[1D	1d	[1A	2r
.	.	.	2dd
=63	=63	=63	=63
0D_	2d	1A]	1ff
.	1f	.	.
.	.	2r	2dd
.	2d	2a	[2ff
=64	=64	=64	=64
1D]	2.f	2a	2ff]
.	.	2a	2.dd
.	4e	.	.
2r	4d	2a	.
.	4c	.	4ee
2D	2d	2a	2ff
=65	=65	=65	=65
2A	2c	2a	2ee
2B	2d	2g	1dd
1A	1e	1a	.
.	.	.	2cc#i
=66	=66	=66	=66
2D	2d	2f	2dd
2G	2d	2g	2b
2G	2d	2g	2b
2G	2d	2g	2b
=67	=67	=67	=67
4C	1e	1.g	1cc
4D	.	.	.
4E	.	.	.
4F	.	.	.
2G	2d	.	2b
2A	[2c	2e	[2a
=68	=68	=68	=68
2F	2c]	2f	2a]
2G	2B	1d	1g
2D	2A	.	.
2D	2A	2d	2f#i
=69	=69	=69	=69
0G	1G	4B	0g
.	.	4A	.
.	.	4B	.
.	.	4c	.
.	1r	1d	.
=70	=70	=70	=70
2r	1B	0r	0r
1E	.	.	.
.	1c	.	.
[2F	.	.	.
=71	=71	=71	=71
2F]	1A	0r	0r
1D	.	.	.
.	2A	.	.
2D	2B	.	.
=72	=72	=72	=72
2E	2c	0r	0r
2F	1d	.	.
1G	.	.	.
.	[2B	.	.
=73	=73	=73	=73
1E	2B]	0r	0r
.	1c	.	.
1F	.	.	.
.	2A	.	.
=74	=74	=74	=74
2D	2.d	0r	1r
2.G	.	.	.
.	4c	.	.
.	4B	.	2r
4F	4A	.	.
4E	2B	.	2b
4D	.	.	.
=75	=75	=75	=75
2E	1G	1r	2b
2C	.	.	2cc
1r	1r	2r	2b
.	.	2e	4a
.	.	.	4g
=76	=76	=76	=76
0r	0r	2e	2b
.	.	2f	2a
.	.	2e	2g
.	.	4d	[2dd
.	.	4c	.
=77	=77	=77	=77
0r	2r	2B	2dd]
.	2g	2c	1cc
.	2g	2d	.
.	2f	2d	2b
=78	=78	=78	=78
2r	2.e	2.c	1cc
2c	.	.	.
.	8dL	4B	.
.	8cJ	.	.
2c	2e	1A	1r
2B	2d	.	.
=79	=79	=79	=79
2A	2.c	1r	2r
2c	.	.	1g
.	4d	.	.
4c	2e	2r	.
4B	.	.	.
2A	[2f	2c	2a
=80	=80	=80	=80
2G	2f]	2d	1b
2G	2e	2B	.
1F	1f	1c	1a
=81	=81	=81	=81
2r	2r	2r	2r
2F	2f	2c	2a
2F	2f	2c	2a
2F	2f	2c	2a
=82	=82	=82	=82
2G	2d	2g	2b
2B	2d	2g	2dd
2A	2e	2a	2dd
2A	2e	2a	2cc#i
=	=	=	=
*M3/1	*M3/1	*M3/1	*M3/1
*met(3)	*met(3)	*met(3)	*met(3)
0D	0d	0f	0dd
1r	1r	1r	1r
=83	=83	=83	=83
0G	0d	0g	0b
[1A	[1c	[1f	[1cc
=84	=84	=84	=84
1A]	1c]	1f]	1cc]
1G	1d	1g	1b
[1G	[1B	2d	[1dd
.	.	2c	.
=85	=85	=85	=85
1G]	1B]	2d	1dd]
.	.	2e	.
1A	1c	1f	1cc
[1G	[1d	[1g	[1b
=86	=86	=86	=86
2G]	2d]	2g]	2b]
2G	2d	2g	2b
1G	1d	1g	1b
1E	1e	1g	1b
=	=	=	=
*M2/1	*M2/1	*M2/1	*M2/1
*met(C|)	*met(C|)	*met(C|)	*met(C|)
1G	1d	0g	0b
2r	1r	.	.
[2G	.	.	.
=87	=87	=87	=87
2G]	1d	0r	0r
2D	.	.	.
1F	2A	.	.
.	[2c	.	.
=88	=88	=88	=88
2C	2c]	0r	0r
2.E	2G	.	.
.	1B	.	.
4F	.	.	.
[2G	.	.	.
=89	=89	=89	=89
2G]	1A	1r	0r
2F#i	.	.	.
1G	1G	2r	.
.	.	[2g	.
=90	=90	=90	=90
0r	0r	2g]	1dd
.	.	2d	.
.	.	1f	2a
.	.	.	[2cc
=91	=91	=91	=91
0r	0r	2c	2cc]
.	.	2.e	2g
.	.	.	1b
.	.	4f	.
.	.	[2g	.
=92	=92	=92	=92
1r	1r	2g]	1a
.	.	2f#i	.
1G	2r	1g	1g
.	[2d	.	.
=93	=93	=93	=93
2D	2d]	0r	0r
1F	2A	.	.
.	1c	.	.
2C	.	.	.
=94	=94	=94	=94
2.E	2G	1r	1r
.	2.B	.	.
4F	.	.	.
1G	.	1g	2r
.	4c	.	.
.	4d	.	[2dd
.	4e	.	.
=95	=95	=95	=95
0r	2f	2d	2dd]
.	2.F	1f	2a
.	.	.	1cc
.	4G	.	.
.	4A	2c	.
.	4B	.	.
=96	=96	=96	=96
0r	2c	2.e	2g
.	2.G	.	2.b
.	.	4f	.
.	.	1g	.
.	4A	.	4cc
.	4B	.	[2dd
.	4c	.	.
=97	=97	=97	=97
1G	2d	1r	2dd]
.	2e	.	4cc
.	.	.	4b
2D	2.f	1d	4a
.	.	.	4g
[2F	.	.	4a
.	4e	.	4b
=98	=98	=98	=98
4F]	2.c	2A	2.cc
4E	.	.	.
2.C	.	1c	.
.	4d	.	4a
.	1e	.	2cc
4D	.	.	.
4E	.	2G	[2b
4F	.	.	.
=99	=99	=99	=99
2G	2d	2.B	4b]
.	.	.	4a
2E	2G	.	1g
.	.	4c	.
1D	1A	[1d	.
.	.	.	2f#i
=100	=100	=100	=100
[0Gl	[0Gl	2d]	[0gl
.	.	4c	.
.	.	4B	.
.	.	1e	.
=	=	=	=
00G]	00G]	00d	00g]
=||	=||	=||	=||
*M2/1	*M2/1	*M2/1	*M2/1
*met(C2)	*met(C2)	*met(C2)	*met(C2)
!!section: Secunda pars: Ave cujus conceptio
!!!OMD: Secunda pars: Ave cujus conceptio
0r	0r	1d	1dd
.	.	1g	1dd
=101	=101	=101	=101
0r	0r	1a	1cc
.	.	2g	2b
.	.	[2b	[2g
=102	=102	=102	=102
1r	1r	4b]	4g]
.	.	4a	4a
.	.	1g	4b
.	.	.	4g
1D	1d	.	2a
.	.	2f#i	2a
=103	=103	=103	=103
1G	1d	1g	1g
1A	1c	1r	1r
=104	=104	=104	=104
2G	2B	0r	0r
2.B	2.G	.	.
4A	4A	.	.
[2G	4B	.	.
.	4G	.	.
=105	=105	=105	=105
2G]	2A	1r	1r
2F#i	2A	.	.
[1G	1G	1d	1dd
=106	=106	=106	=106
1G]	0r	1g	1dd
1r	.	1a	1cc
=107	=107	=107	=107
0r	0r	2g	2b
.	.	2.b	2.dd
.	.	4a	4cc
.	.	[2g	2b
=108	=108	=108	=108
1D	1d	2g]	2a
.	.	2f#i	2a
1G	1d	1g	1g
=109	=109	=109	=109
1A	1c	0r	0r
2G	2B	.	.
[2B	[2d	.	.
=110	=110	=110	=110
4B]	4d]	0r	0r
4A	4c	.	.
1G	2B	.	.
.	2A	.	.
2F	2A	.	.
=111	=111	=111	=111
2E	2.G	0r	0r
1G	.	.	.
.	4A	.	.
.	4B	.	.
.	4G	.	.
4F	[2c	.	.
4E	.	.	.
=112	=112	=112	=112
1D	2c]	1r	0r
.	2B	.	.
1C	2.c	2r	.
.	.	2e	.
.	4B	.	.
=113	=113	=113	=113
0r	1G	2.g	2r
.	.	.	2b
.	.	4g	.
.	1r	2g	2.dd
.	.	2f	.
.	.	.	4dd
=114	=114	=114	=114
0r	0r	2g	2dd
.	.	2e	2cc
.	.	2d	2dd
.	.	2d	2b
=115	=115	=115	=115
0r	0r	2.f	2a
.	.	.	2a
.	.	4f	.
.	.	2f	2.cc
.	.	2e	.
.	.	.	4cc
=116	=116	=116	=116
0r	0r	2f	2cc
.	.	2d	2b
.	.	1c	2cc
.	.	.	2a
=117	=117	=117	=117
2r	1r	0r	0g
2E	.	.	.
2.G	2r	.	.
.	2B	.	.
4G	.	.	.
=118	=118	=118	=118
2G	2.d	0r	0r
2F	.	.	.
.	4d	.	.
2G	2d	.	.
2E	2c	.	.
=119	=119	=119	=119
2D	2d	0r	0r
2D	2B	.	.
2.F	2A	.	.
.	2A	.	.
4F	.	.	.
=120	=120	=120	=120
2F	2.c	0r	1r
2E	.	.	.
.	4c	.	.
2F	2c	.	2r
2D	2B	.	2dd
=121	=121	=121	=121
1C	2c	1r	2ee
.	2A	.	2cc
1r	1G	2r	2dd
.	.	2g	2b
=122	=122	=122	=122
0r	2r	2a	2cc
.	2d	2f	2a
.	2e	2g	1g
.	2c	2e	.
=123	=123	=123	=123
2r	2d	2f	0r
2G	2B	2d	.
2A	2c	1c	.
2F	2A	.	.
=124	=124	=124	=124
2G	1G	2r	1r
2E	.	2g	.
2F	1r	2a	2r
2D	.	2f	2dd
=125	=125	=125	=125
1C	0r	2g	2ee
.	.	2e	2cc
2r	.	2f	2dd
2G	.	2d	2b
=126	=126	=126	=126
2A	1r	1c	2cc
2F	.	.	2a
2G	2d	2r	1g
2E	2e	2g	.
=127	=127	=127	=127
2F	2c	2a	2r
2D	2d	2f	2dd
2C	2r	2g	2.ee
2G	2B	2e	.
.	.	.	4dd
=128	=128	=128	=128
2A	2c	1f	2cc
2c	2A	.	2cc
2c	2G	1d	2dd
2B	2g	.	2dd
=129	=129	=129	=129
2c	2g	1c	2.ee
2A	2f	.	.
.	.	.	8ddL
.	.	.	8ccJ
1G	1g	1d	1b
=130	=130	=130	=130
2r	2r	2r	2r
2G	2g	2d	2b
2G	2g	2d	2b
2G	2g	2d	2b
=131	=131	=131	=131
2G	2g	2d	2b
2G	2g	2d	2b
2G	2g	2d	2b
2G	2g	2d	2b
=132	=132	=132	=132
[0D	[0f	2d	1a
.	.	2A	.
.	.	2B	2r
.	.	2A	2a
=133	=133	=133	=133
0D]	0f]	2.d	2b
.	.	.	2a
.	.	4c	.
.	.	2B	2.dd
.	.	2A	.
.	.	.	4cc
=134	=134	=134	=134
2r	1r	2G	2b
2D	.	2f	2a
2E	2r	2g	2g
2D	2A	2a	[2dd
=135	=135	=135	=135
1.G	2B	1d	4dd]
.	.	.	4cc
.	2G	.	4b
.	.	.	4a
.	1d	2G	2b
2F	.	2A	[2a
=136	=136	=136	=136
1E	1G	2B	2a]
.	.	2c	1g
1D	2A	[1d	.
.	2A	.	2f#i
=137	=137	=137	=137
0G	0G	1d]	0g
.	.	1r	.
=138	=138	=138	=138
0r	0r	1g	0r
.	.	2f	.
.	.	2e	.
=139	=139	=139	=139
0r	0r	2.d	1dd
.	.	4e	.
.	.	2f	2cc
.	.	2g	2b
=140	=140	=140	=140
0r	1r	1.a	2a
.	.	.	1ff
.	1d	.	.
.	.	4g	4ee
.	.	4f	4dd
=141	=141	=141	=141
0r	2c	2g	2ee
.	2B	2d	1dd
.	1A	1e	.
.	.	.	2cc#i
=142	=142	=142	=142
1G	0r	1d	1dd
2F	.	1r	1r
2E	.	.	.
=143	=143	=143	=143
2.D	1d	0r	0r
4E	.	.	.
2F	2c	.	.
2G	2B	.	.
=144	=144	=144	=144
1.A	2A	0r	0r
.	1f	.	.
4G	4e	.	.
4F	4d	.	.
=145	=145	=145	=145
2G	2e	0r	0r
2D	1d	.	.
1E	.	.	.
.	2c#i	.	.
=146	=146	=146	=146
1D	1d	2r	2r
.	.	2f	2a
1r	1r	2.g	2.b
.	.	4f	4a
=147	=147	=147	=147
0r	0r	2g	2b
.	.	2f	2a
.	.	2g	2b
.	.	2e	2cc
=148	=148	=148	=148
2r	2r	0d	1a
2D	2A	.	.
2.G	2.B	.	1r
4F	4A	.	.
=149	=149	=149	=149
2G	2B	2r	0r
2F	2A	2d	.
2G	2B	2d	.
2E	2c	2e	.
=150	=150	=150	=150
0D	1A	1f	2r
.	.	.	2a
.	1r	1d	2a
.	.	.	2b
=151	=151	=151	=151
0r	0r	2e	2.cc
.	.	2.f	.
.	.	.	4b
.	.	.	4a
.	.	4e	4g
.	.	4d	[2b
.	.	4c	.
=152	=152	=152	=152
2r	0r	4d	2b]
.	.	4c	.
2D	.	4B	1a
.	.	4A	.
2D	.	1B	.
2E	.	.	2g#i
=153	=153	=153	=153
1F	2r	1A	1a
.	2A	.	.
1D	2A	1r	1r
.	2B	.	.
=154	=154	=154	=154
2E	2c	1r	0r
2F	2A	.	.
1G	2.B	2r	.
.	.	2d	.
.	4c	.	.
=155	=155	=155	=155
0r	1d	2f	2r
.	.	2f	2a
.	1r	2.f	2cc
.	.	.	2cc
.	.	8eL	.
.	.	8dJ	.
=156	=156	=156	=156
0r	0r	2c	2.cc
.	.	2d	.
.	.	.	8bL
.	.	.	8aJ
.	.	2e	2g
.	.	2f	2a
=157	=157	=157	=157
0r	1r	2g	2b
.	.	1a	2cc
.	1G	.	2dd
.	.	[2g	2b
=158	=158	=158	=158
1r	1d	2g]	1a
.	.	2f#i	.
1C	1e	[1g	1g
=159	=159	=159	=159
1G	2d	1g]	1b
.	1e	.	.
1A	.	1e	1cc
.	[2c	.	.
=160	=160	=160	=160
1F	2c]	1a	0cc
.	1f	.	.
1c	.	1g	.
.	2e	.	.
=161	=161	=161	=161
1.d	2.f	2f	2a
.	.	2.a	1ff
.	4e	.	.
.	2d	.	.
.	.	4g	.
2A	2c	2a	[2ee
=162	=162	=162	=162
1B	1d	2f	2ee]
.	.	2g	2.dd
1A	1e	1a	.
.	.	.	4cc#i
.	.	.	2cc#i
=163	=163	=163	=163
[0D	[0d	[0f	1dd
.	.	.	1r
=164	=164	=164	=164
0D]	0d]	0f]	1dd
.	.	.	2dd
.	.	.	2dd
=165	=165	=165	=165
0r	0r	1r	1cc
.	.	1g	2b
.	.	.	[2b
=166	=166	=166	=166
0r	0r	2g	2b]
.	.	2g	4a
.	.	.	4g
.	.	1f	2a
.	.	.	2a
=167	=167	=167	=167
0r	1g	2e	2.g
.	.	1e	.
.	.	.	4a
.	2g	.	4b
.	.	.	4g
.	2g	4d	[2cc
.	.	4c	.
=168	=168	=168	=168
1r	1f	2d	2cc]
.	.	2d	2b
1c	2e	1c	[1cc
.	[2e	.	.
=169	=169	=169	=169
2c	2e]	0r	1cc]
2c	4d	.	.
.	4c	.	.
1B	2d	.	1r
.	2d	.	.
=170	=170	=170	=170
2A	2.c	0r	0r
1A	.	.	.
.	4d	.	.
.	4e	.	.
.	4c	.	.
4G	[2f	.	.
4F	.	.	.
=171	=171	=171	=171
1G	2f]	0r	0r
.	2e	.	.
2F	2.d	.	.
[2F	.	.	.
.	8cL	.	.
.	8BJ	.	.
=172	=172	=172	=172
2F]	2A	0r	0r
4E	1d	.	.
4D	.	.	.
1E	.	.	.
.	2c#i	.	.
=173	=173	=173	=173
0D	0d	0r	1dd
.	.	.	2dd
.	.	.	2dd
=174	=174	=174	=174
0r	0r	1r	1cc
.	.	1g	2b
.	.	.	[2b
=175	=175	=175	=175
0r	0r	2g	2b]
.	.	2g	4a
.	.	.	4g
.	.	1f	2a
.	.	.	2a
=176	=176	=176	=176
0r	1g	2e	2.g
.	.	1e	.
.	.	.	4a
.	2g	.	4b
.	.	.	4g
.	2g	4d	[2cc
.	.	4c	.
=177	=177	=177	=177
1r	1f	2d	2cc]
.	.	2d	2b
1c	2e	1c	[1cc
.	[2e	.	.
=178	=178	=178	=178
2c	2e]	0r	1cc]
2c	4d	.	.
.	4c	.	.
1B	2d	.	1r
.	2d	.	.
=179	=179	=179	=179
2A	2.c	0r	0r
1A	.	.	.
.	4d	.	.
.	4e	.	.
.	4c	.	.
4G	[2f	.	.
4F	.	.	.
=180	=180	=180	=180
1G	2f]	0r	0r
.	2e	.	.
2F	2d	.	.
[2F	4c	.	.
.	4B	.	.
=181	=181	=181	=181
2F]	2A	0r	0r
4E	1d	.	.
4D	.	.	.
1E	.	.	.
.	2c#i	.	.
=182	=182	=182	=182
1D	1d	2r	2a
.	.	2d	2b
1r	1r	2e	2g
.	.	2c	2a
=183	=183	=183	=183
1r	1r	2d	2b
.	.	2e	2cc
2r	2A	2f	2a
2D	2B	2d	2dd
=184	=184	=184	=184
2E	2G	2g	0r
2C	2A	2r	.
2D	2B	1r	.
2E	2c	.	.
=185	=185	=185	=185
1F	2A	2r	0r
.	1d	2A	.
1E	.	2B	.
.	2c#i	2G	.
=186	=186	=186	=186
1D	1d	2A	2r
.	.	2B	2dd
1r	1r	2c	2ee
.	.	2A	2cc
=187	=187	=187	=187
0r	0r	2.d	2.ff
.	.	4e	4ee
.	.	2f	4cc
.	.	.	4dd
.	.	[2g	[2ee
=188	=188	=188	=188
0r	1r	4g]	4ee]
.	.	4f	4dd
.	.	2d	1dd
.	2r	1e	.
.	2A	.	2cc#i
=189	=189	=189	=189
2r	2B	0d	0dd
2G	2G	.	.
2F	2A	.	.
2G	2B	.	.
=190	=190	=190	=190
2A	2c	1r	2r
2F	2A	.	2cc
2G	[1d	2r	2b
2F	.	2A	2a
=191	=191	=191	=191
2.G	1d]	2B	2g
.	.	2G	2b
4F	.	.	.
1D	2.d	2A	2a
.	.	2B	4g
.	4c	.	4f
=192	=192	=192	=192
2r	2A	2c	2e
2F	2c	2A	2a
2G	2B	[1d	2g
2F	2A	.	[2a
=193	=193	=193	=193
1G	2.B	0d_	2a]
.	.	.	1g
.	4G	.	.
1D	2A	.	.
.	2A	.	2f#i
=194	=194	=194	=194
1G	1G	1d]	1g
1r	1r	1r	1r
=195	=195	=195	=195
0G	0d	0g	0b
=196	=196	=196	=196
1G	1d	1g	1b
1G	1d	1g	1b
=197	=197	=197	=197
0C	0e	0g	0cc
=198	=198	=198	=198
0G	0d	[0g	[0b
=199	=199	=199	=199
2r	1r	0g]	0b]
1E	.	.	.
.	2r	.	.
[2G	[2B	.	.
=200	=200	=200	=200
2G]	2B]	1r	0r
2F	1d	.	.
1A	.	2r	.
.	2c	[2e	.
=201	=201	=201	=201
1G	1e	2e]	2r
.	.	1g	1b
1r	1d	.	.
.	.	2f	[2dd
=202	=202	=202	=202
0r	0r	1a	2dd]
.	.	.	2cc
.	.	2.g	1ee
.	.	4e	.
=203	=203	=203	=203
0r	2r	2f	2.dd
.	1B	2.d	.
.	.	.	4cc
.	.	.	4b
.	.	4e	4a
.	[2d	4f	[2b
.	.	4d	.
=204	=204	=204	=204
0r	2d]	4f	2b]
.	.	4g	.
.	2c	1a	2.cc
.	1e	.	.
.	.	.	4b
.	.	[2g	4a
.	.	.	4g
=205	=205	=205	=205
2r	1d	2g]	1a
2D	.	2f	.
2E	1r	2g	[1g
2C	.	2e	.
=206	=206	=206	=206
2.E	2r	2c	0g_
.	2G	2e	.
4F	.	.	.
[1G	2B	[1d	.
.	2G	.	.
=207	=207	=207	=207
0G]	2.B	1d]	1g]
.	4c	.	.
.	4d	2r	2r
.	4e	.	.
.	[2d	[2B	2g
=208	=208	=208	=208
2r	4d]	2B]	2.dd
.	4c	.	.
1G	4B	1d	.
.	4A	.	4cc
.	2B	.	2b
2C	2G	2c	2cc
=209	=209	=209	=209
2G	2B	1e	2b
2C	2c	.	1g
1D	1A	1d	.
.	.	.	2f#i
=210	=210	=210	=210
2r	[0Gl	2r	[0gl
2.d	.	1B	.
4c	.	.	.
4B	.	[2d	.
4A	.	.	.
=211	=211	=211	=211
2B	0G_	2d]	0g_
2.C	.	2c	.
.	.	1e	.
4D	.	.	.
4E	.	.	.
4C	.	.	.
=212	=212	=212	=212
00Gl	00G]	00dl	00g]
==	==	==	==
*-	*-	*-	*-
!!!system-decoration: [*]
!!!RDF**kern: i = editorial accidental
!!!RDF**kern: l = terminal long
!!!ENC: Benjamin Ory
!!!END: 2022/2/9
!!!EED: Benjamin Ory
!!!EEV: 2022/02/09
!!!YEC: Copyright 2022 Benjamin Ory, All Rights Reserved
!!!ONB: Translated from MusicXML on 2022/02/09
